X:1
T: Laurie Thompson's Jig
C:Bruce Shawyer, based of a theme by Laurie Thompson
R:Jig
Q:180
K:G
M:6/8
L:1/16
D2|G4A2 B2A2G2|A4G2 E4G2|D4G2 B2A2G2|A4G2 E6|D4G2 B2A2G2|A4G2 E2F2G2|E4E2 D4E2|G6-G4D2|
G4A2 B2A2G2|A4G2 E4G2|D4G2 B2A2G2|A4G2 E6|D4G2 B2A2G2|A4G2 E2F2G2|E4E2 D4E2|G6-G4G2|
B4c2 d2c2d2|e4d2 c4B2|A4B2 c2B2c2|d4c2 B6|B4c2 d2c2d2|e4d2 c4B2|A4A2 E4F2|G6-G4G2|
B4c2 d2c2d2|e4d2 c4B2|A4B2 c2B2c2|d4c2 B6|B4c2 d2c2d2|e4d2 c4B2|A4A2 E4F2|G6-G4||
